X:0332
M:C
L:1/8
Q:1/4=100
K:G
   efgd BcdB|edcB A3 B|G2g2 dedc|B2G2 G2||
d2|g3 a gabg|agab a2ge|dega gaba|g2g2 d3d|
   efgd BcdB|edcB A2BA|G2g2 dedc|B2G2 G2:|

